X:0540
T:New Stepney March.
N:for G. Flute.
M:6/8
L:1/8
Q:3/8=92 "Moderato"
I: :: ::
Z:Jack Campin * www.campin.me.uk * 2009
K:D
f/g/|afd d'2b|c'2a b2g|afd afd |cee e2
f/g/|afd d'2b|c'2a b2g|afg afb |fge d2::
A/G/|F2A d2 f|ceg  dfa|g2b afd |cee e2
A/G/|F2A d2 f|ceg  dfg|afg afd'|fge d2:|
<end>
<start>
